X:167
T: Banks of Inverness
N: O'Farrell's Pocket Companion v.2 (Sky ed. p.84)
N: "Scotch"
M: C
L: 1/8
R: polka
Q: 240
K: C
G>AGE GAcd|egde cAAc|G>AGE GAcd|egde c2 c2 :|
eg g2 ea a2|gede cA A2|eg g2 eaab|c'ba^g a2a2|
eg g2 ea a2|gede cAAc|GAGE GAcd|egde c2c2 ||
